X: 63
T:Untitled. HA.062
M:6/4
Q:90
S:Henry Atkinson's original MS,Hartburn,N'umberland,1694.
O:England
A:Hartburn,Northumberland
H:1/4
Z:vmp.Chris Partington.Jan.2004
K:G
gab gef|g3 d>ec|cA2G3|!
Bcd edg|e2aa>gf|ge2 d3||!
ABc cde|e>dc efg|ABA F2d|!
ecc dBB|cAf gGA|A2G G2|]
